TMultiGraph/c5.svg

<svg xmlns="http://www.w3.org/2000/svg" viewBox="0 0 1200 800" preserveAspectRatio="none" width="1200" height="800">
 <path d="M0,0H1200V800H0Z" style="fill: white;"></path>
 <g>
  <g transform="translate(120,80)">
   <path d="M0,0H960V640H0Z" style="fill: white; stroke: black; stroke-width: 1;"></path>
   <svg x="0" y="0" overflow="hidden" width="960" height="640" viewBox="0 0 960 640">
    <g>
     <path d="M0,53l97,60l97,59l97,59l97,59l97,60l97,59l97,59l97,59l97,60" style="stroke: blue; stroke-width: 4; fill: none;"></path>
     <path d="M0,57l-4,-8h8zM97,117l-4,-8h8zM194,176l-4,-8h8zM291,235l-4,-8h8zM388,294l-4,-8h8zM485,354l-4,-8h8zM582,413l-4,-8h8zM679,472l-4,-8h8zM776,531l-4,-8h8zM873,591l-4,-8h8z" style="stroke: black; fill: black;"></path>
    </g>
    <g>
     <path d="M0,53l97,99l97,99l97,99l97,98l97,99l97,99l97,99l97,98l97,99" style="stroke: red; stroke-width: 4; fill: none;"></path>
     <path d="M-4,49v8h8v-8zM93,148v8h8v-8zM190,247v8h8v-8zM287,346v8h8v-8zM384,444v8h8v-8zM481,543v8h8v-8zM578,642v8h8v-8z" style="stroke: black; fill: black;"></path>
    </g>
    <g>
     <path d="M0,53l97,50l97,49l97,49l97,50l97,49l97,50l97,49l97,49l97,50" style="stroke: green; stroke-width: 4; fill: none;"></path>
     <path d="M0,49l-4,8h8zM97,99l-4,8h8zM194,148l-4,8h8zM291,197l-4,8h8zM388,247l-4,8h8zM485,296l-4,8h8zM582,346l-4,8h8zM679,395l-4,8h8zM776,444l-4,8h8zM873,494l-4,8h8z" style="stroke: red; fill: red;"></path>
    </g>
   </svg>
   <g>
    <g transform="translate(0,640)">
     <path d="M0,0h960M0,-24v24m19,-12v12m20,-12v12m19,-12v12m20,-12v12m19,-24v24m19,-12v12m20,-12v12m19,-12v12m20,-12v12m19,-24v24m19,-12v12m20,-12v12m19,-12v12m20,-12v12m19,-24v24m19,-12v12m20,-12v12m19,-12v12m19,-12v12m20,-24v24m19,-12v12m20,-12v12m19,-12v12m19,-12v12m20,-24v24m19,-12v12m20,-12v12m19,-12v12m19,-12v12m20,-24v24m19,-12v12m20,-12v12m19,-12v12m19,-12v12m20,-24v24m19,-12v12m20,-12v12m19,-12v12m19,-12v12m20,-24v24m19,-12v12m20,-12v12m19,-12v12m19,-12v12m20,-24v24m19,-12v12m20,-12v12m19,-12v12m19,-12v12" style="stroke: black; stroke-width: 1;"></path>
     <g font-family="Arial" font-size="28" space="preserve" fill="black" text-anchor="middle">
      <text dy=".8em" transform="translate(0,6)">
       0
      </text>
      <text dy=".8em" transform="translate(97,6)">
       1
      </text>
      <text dy=".8em" transform="translate(194,6)">
       2
      </text>
      <text dy=".8em" transform="translate(291,6)">
       3
      </text>
      <text dy=".8em" transform="translate(388,6)">
       4
      </text>
      <text dy=".8em" transform="translate(485,6)">
       5
      </text>
      <text dy=".8em" transform="translate(582,6)">
       6
      </text>
      <text dy=".8em" transform="translate(679,6)">
       7
      </text>
      <text dy=".8em" transform="translate(776,6)">
       8
      </text>
      <text dy=".8em" transform="translate(873,6)">
       9
      </text>
     </g>
    </g>
    <g>
     <path d="M0,0v640M18,626h-18m18,-20h-18m18,-19h-18m18,-20h-18m36,-20h-36m18,-20h-18m18,-19h-18m18,-20h-18m18,-20h-18m36,-20h-36m18,-19h-18m18,-20h-18m18,-20h-18m18,-20h-18m36,-19h-36m18,-20h-18m18,-20h-18m18,-20h-18m18,-19h-18m36,-20h-36m18,-20h-18m18,-20h-18m18,-19h-18m18,-20h-18m36,-20h-36m18,-20h-18m18,-19h-18m18,-20h-18m18,-20h-18m36,-20h-36m18,-19h-18m18,-20h-18" style="stroke: black; stroke-width: 1;"></path>
     <g font-family="Arial" font-size="28" space="preserve" fill="black" text-anchor="end">
      <text dy=".4em" transform="translate(-4,547)">
       5
      </text>
      <text dy=".4em" transform="translate(-4,448)">
       6
      </text>
      <text dy=".4em" transform="translate(-4,350)">
       7
      </text>
      <text dy=".4em" transform="translate(-4,251)">
       8
      </text>
      <text dy=".4em" transform="translate(-4,152)">
       9
      </text>
      <text dy=".4em" transform="translate(-4,53)">
       10
      </text>
     </g>
    </g>
   </g>
  </g>
  <g transform="translate(120,4)" font-family="Arial" font-size="40" space="preserve">
   <text fill="black" text-anchor="middle" dy=".8em" transform="translate(480)">
    graph 3
   </text>
  </g>
  <g transform="translate(600,96)" font-family="Arial" font-size="43" space="preserve">
   <path d="M0,0H456V168H0Z" style="fill: white; stroke: black; stroke-width: 1;"></path>
   <path d="M14,31H100" style="stroke: blue; stroke-width: 4;"></path>
   <path d="M57,35l-4,-8h8z" style="stroke: black; fill: black;"></path>
   <text fill="black" text-anchor="start" dy=".4em" transform="translate(114,31)">
    graph 3
   </text>
   <path d="M14,84H100" style="stroke: red; stroke-width: 4;"></path>
   <path d="M53,80v8h8v-8z" style="stroke: black; fill: black;"></path>
   <text fill="black" text-anchor="start" dy=".4em" transform="translate(114,84)">
    graph 1
   </text>
   <path d="M14,137H100" style="stroke: green; stroke-width: 4;"></path>
   <path d="M57,133l-4,8h8z" style="stroke: red; fill: red;"></path>
   <text fill="black" text-anchor="start" dy=".4em" transform="translate(114,136)">
    graph 2
   </text>
  </g>
 </g>
</svg>

<svg xmlns="http://www.w3.org/2000/svg" viewBox="0 0 1200 800" preserveAspectRatio="none" width="1200" height="800">
 <path d="M0,0H1200V800H0Z" style="fill: white;"></path>
 <g>
  <g transform="translate(120,80)">
   <path d="M0,0H960V640H0Z" style="fill: white; stroke: black; stroke-width: 1;"></path>
   <svg x="0" y="0" overflow="hidden" width="960" height="640" viewBox="0 0 960 640">
    <g>
     <path d="M0,53l97,60l97,59l97,59l97,59l97,60l97,59l97,59l97,59l97,60" style="stroke: blue; stroke-width: 4; fill: none;"></path>
     <path d="M0,57l-4,-8h8zM97,117l-4,-8h8zM194,176l-4,-8h8zM291,235l-4,-8h8zM388,294l-4,-8h8zM485,354l-4,-8h8zM582,413l-4,-8h8zM679,472l-4,-8h8zM776,531l-4,-8h8zM873,591l-4,-8h8z" style="stroke: black; fill: black;"></path>
    </g>
    <g>
     <path d="M0,53l97,99l97,99l97,99l97,98l97,99l97,99l97,99l97,98l97,99" style="stroke: red; stroke-width: 4; fill: none;"></path>
     <path d="M-4,49v8h8v-8zM93,148v8h8v-8zM190,247v8h8v-8zM287,346v8h8v-8zM384,444v8h8v-8zM481,543v8h8v-8zM578,642v8h8v-8z" style="stroke: black; fill: black;"></path>
    </g>
    <g>
     <path d="M0,53l97,50l97,49l97,49l97,50l97,49l97,50l97,49l97,49l97,50" style="stroke: green; stroke-width: 4; fill: none;"></path>
     <path d="M0,49l-4,8h8zM97,99l-4,8h8zM194,148l-4,8h8zM291,197l-4,8h8zM388,247l-4,8h8zM485,296l-4,8h8zM582,346l-4,8h8zM679,395l-4,8h8zM776,444l-4,8h8zM873,494l-4,8h8z" style="stroke: red; fill: red;"></path>
    </g>
   </svg>
   <g>
    <g transform="translate(0,640)">
     <path d="M0,0h960M0,-24V0M19,-12V0M39,-12V0M58,-12V0M78,-12V0M97,-24V0M116,-12V0M136,-12V0M155,-12V0M175,-12V0M194,-24V0M213,-12V0M233,-12V0M252,-12V0M272,-12V0M291,-24V0M310,-12V0M330,-12V0M349,-12V0M368,-12V0M388,-24V0M407,-12V0M427,-12V0M446,-12V0M465,-12V0M485,-24V0M504,-12V0M524,-12V0M543,-12V0M562,-12V0M582,-24V0M601,-12V0M621,-12V0M640,-12V0M659,-12V0M679,-24V0M698,-12V0M718,-12V0M737,-12V0M756,-12V0M776,-24V0M795,-12V0M815,-12V0M834,-12V0M853,-12V0M873,-24V0M892,-12V0M912,-12V0M931,-12V0M950,-12V0" style="stroke: black; stroke-width: 1;"></path>
     <g font-family="Arial" font-size="28" space="preserve" fill="black" text-anchor="middle">
      <text dy=".8em" transform="translate(0,6)">
       0
      </text>
      <text dy=".8em" transform="translate(97,6)">
       1
      </text>
      <text dy=".8em" transform="translate(194,6)">
       2
      </text>
      <text dy=".8em" transform="translate(291,6)">
       3
      </text>
      <text dy=".8em" transform="translate(388,6)">
       4
      </text>
      <text dy=".8em" transform="translate(485,6)">
       5
      </text>
      <text dy=".8em" transform="translate(582,6)">
       6
      </text>
      <text dy=".8em" transform="translate(679,6)">
       7
      </text>
      <text dy=".8em" transform="translate(776,6)">
       8
      </text>
      <text dy=".8em" transform="translate(873,6)">
       9
      </text>
     </g>
    </g>
    <g>
     <path d="M0,0v640M18,626H0M18,606H0M18,587H0M18,567H0M36,547H0M18,527H0M18,508H0M18,488H0M18,468H0M36,448H0M18,429H0M18,409H0M18,389H0M18,369H0M36,350H0M18,330H0M18,310H0M18,290H0M18,271H0M36,251H0M18,231H0M18,211H0M18,192H0M18,172H0M36,152H0M18,132H0M18,113H0M18,93H0M18,73H0M36,53H0M18,34H0M18,14H0" style="stroke: black; stroke-width: 1;"></path>
     <g font-family="Arial" font-size="28" space="preserve" fill="black" text-anchor="end">
      <text dy=".4em" transform="translate(-4,547)">
       5
      </text>
      <text dy=".4em" transform="translate(-4,448)">
       6
      </text>
      <text dy=".4em" transform="translate(-4,350)">
       7
      </text>
      <text dy=".4em" transform="translate(-4,251)">
       8
      </text>
      <text dy=".4em" transform="translate(-4,152)">
       9
      </text>
      <text dy=".4em" transform="translate(-4,53)">
       10
      </text>
     </g>
    </g>
   </g>
  </g>
  <g transform="translate(120,4)" font-family="Arial" font-size="40" space="preserve">
   <text fill="black" text-anchor="middle" dy=".8em" transform="translate(480)">
    graph 3
   </text>
  </g>
  <g transform="translate(600,96)" font-family="Arial" font-size="43" space="preserve">
   <path d="M0,0H456V168H0Z" style="fill: white; stroke: black; stroke-width: 1;"></path>
   <path d="M14,31H100" style="stroke: blue; stroke-width: 4;"></path>
   <path d="M57,35l-4,-8h8z" style="stroke: black; fill: black;"></path>
   <text fill="black" text-anchor="start" dy=".4em" transform="translate(114,31)">
    graph 3
   </text>
   <path d="M14,84H100" style="stroke: red; stroke-width: 4;"></path>
   <path d="M53,80v8h8v-8z" style="stroke: black; fill: black;"></path>
   <text fill="black" text-anchor="start" dy=".4em" transform="translate(114,84)">
    graph 1
   </text>
   <path d="M14,137H100" style="stroke: green; stroke-width: 4;"></path>
   <path d="M57,133l-4,8h8z" style="stroke: red; fill: red;"></path>
   <text fill="black" text-anchor="start" dy=".4em" transform="translate(114,136)">
    graph 2
   </text>
  </g>
 </g>
</svg>
